!!!!SEGMENT: pl-cz--iii-669--001-008_scigalski-franciszek--missa-in-b-sanctus.krn
!!!cenid: 18xx:1113
!!!COM: Ścigalski, Franciszek
!!!COM-rismID:
!!!CDT: 1782/01/29-1846/09/27
!!!CNT: Polish
!!!OPR: Missa in B
!!!OTL: Sanctus
!!!OMV: 008
!!!PDT:
!!!AGN: Sacred; Mass
!!!SMS-siglum: PL-CZ
!!!SMS-shelfmark: III-669
!!!SMS-shelfwork: 001-008 M
!!!SMS-variant:
!!!SMS-altvar:
!!!NIFC-rismSourceID: 300001314
!!!NIFC-islandoraID: pl-cz:39833
!!!URL-pdf-islandora: https://repozytorium.nifc.pl/islandora/object/pl-cz%3A39833/datastream/PDF/view
!!!URL-scan:
!!!ONB-nifc: UWAGA: części Mszy: Kyrie, Gloria, Qui tollis, Quoniam, Credo, Et incarnatus, Et resurrexit, Sanctus, Benedictus, Agnus Dei, Dona nobis
!!!AIN: 1 alto 1 clars 7 empty 1 fagot 1 organ 1 tenor 1 viola 2 violn 1 vox
!!!key: B
**kern	**fba	**kern	**dynam	**kern	**kern	**dynam	**kern	**text	**kern	**text	**kern	**text	**kern	**text	**kern	**kern	**kern	**kern	**kern	**kern	**kern	**kern
*part16	*part16	*part15	*part15	*part14	*part13	*part13	*part12	*part12	*part11	*part11	*part10	*part10	*part9	*part9	*part8	*part7	*part6	*part5	*part4	*part3	*part2	*part1
*staff16	*	*staff15	*	*staff14	*staff13	*	*staff12	*staff12	*staff11	*staff11	*staff10	*staff10	*staff9	*staff9	*staff8	*staff7	*staff6	*staff5	*staff4	*staff3	*staff2	*staff1
*Iorgan	*	*Iviola	*	*Ivioln	*Ivioln	*	*Iempty	*	*Itenor	*	*Ialto	*	*Ivox	*	*Iempty	*Iempty	*Iempty	*Iempty	*Ifagot	*Iempty	*Iclars	*Iempty
*I"Organo.	*	*I"Alto Viola	*	*I"Violino 2.do	*I"Violino. Primo.	*	*I"Baſso!	*	*I"Tenore	*	*I"Alto	*	*I"Canto	*	*I"Tympano in B.F.	*I"Claryino Princypalo in B	*I"Corno Sekundo in F	*I"Cornu Prymo in F	*I"Fagotto Oblgato	*I"Clarinetto 2do. in B	*I"Clarinetto 1mo in B	*I"Flauto Obligato.
*I'Org.	*	*I'Vla.	*	*I'Vn II	*I'Vn I	*	*I'B.	*	*I'T.	*	*I'A.	*	*I'C.	*	*I'Timp.	*I'Clno. Pr. in B	*I'C. 2 in F	*I'C. 1 in F	*I'Fg. Obl.	*I'Cl. 2 in B	*I'Cl. 1 in B	*I'Fl. Obl.
*ICklav	*	*ICstr	*	*ICstr	*ICstr	*	*ICvox	*	*ICvox	*	*ICvox	*	*ICvox	*	*ICidio	*ICbras	*ICbras	*ICbras	*ICww	*ICww	*ICww	*ICww
*clefF4	*	*clefC3	*	*clefG2	*clefG2	*	*clefF4	*	*clefC4	*	*clefC3	*	*clefC1	*	*clefF4	*clefG2	*clefG2	*clefG2	*clefF4	*clefG2	*clefG2	*clefG2
*	*	*	*	*	*	*	*	*	*	*	*	*	*	*	*ITrd1c2	*ITrd1c2	*ITrd1c2	*ITrd1c2	*	*ITrd1c2	*ITrd1c2	*
*k[b-e-]	*	*k[e-b-]	*	*k[b-e-]	*k[b-e-]	*	*k[b-e-]	*	*k[b-e-]	*	*k[b-e-]	*	*k[b-e-]	*	*k[b-e-]	*k[b-e-]	*k[b-e-]	*k[b-e-]	*k[e-b-]	*k[b-e-]	*k[b-e-]	*k[b-e-]
*B:	*	*B:	*	*B:	*B:	*	*B:	*	*B:	*	*B:	*	*B:	*	*B:	*B:	*B:	*B:	*B:	*B:	*B:	*B:
*M2/2	*	*M2/2	*	*M2/2	*M2/2	*	*M2/2	*	*M2/2	*	*M2/2	*	*M2/2	*	*M2/2	*M2/2	*M2/2	*M2/2	*M2/2	*M2/2	*M2/2	*M2/2
*met(c|)	*	*met(c|)	*	*met(c|)	*met(c|)	*	*met(c|)	*	*met(c|)	*	*met(c|)	*	*met(c|)	*	*met(c|)	*met(c|)	*met(c|)	*met(c|)	*met(c|)	*met(c|)	*met(c|)	*met(c|)
=1	=1	=1	=1	=1	=1	=1	=1	=1	=1	=1	=1	=1	=1	=1	=1	=1	=1	=1	=1	=1	=1	=1
!	!	!LO:TX:t=P::problem=caudy wszystkich nut po prawej&colon; global	!	!	!	!	!	!	!	!	!	!	!	!	!	!	!	!	!	!	!	!
!	!	!LO:TX:rj:a:t=Andantino	!	!LO:TX:rj:a:t=Adagio	!LO:TX:rj:a:t=Adagio.	!	!LO:TX:rj:a:t=Adagio	!	!LO:TX:rj:a:t=Adagio	!	!LO:TX:rj:a:t=Adagio	!	!LO:TX:rj:a:t=Adagio	!	!LO:TX:rj:a:t=Adagio	!LO:TX:rj:a:t=Adagiio	!	!	!	!	!	!
!LO:TX:t=P:: global:problem=caudy drobnych nut nieregularnie&colon; prawo, lewo, środek	!	!LO:N:vis=4	!	!	!	!	!	!	!	!	!	!	!	!	!	!	!LO:TX:a:i:t=Adagio in B	!LO:TX:rj:a:i:t=Adagio in B	!	!	!LO:TX:rj:a:t=Adagio.	!LO:TX:rj:a:t=Adagio
!	!	!	!LO:DY:rj:b:t=fo&colon;	!	!	!LO:DY:rj:b:t=f.	!LO:TX:a:t=1.	!	!LO:TX:a:t=1	!	!LO:TX:a:t=1.	!	!LO:TX:a:t=1.	!	!LO:TX:a:t=1.	!LO:TX:a:t=1	!LO:TX:a:t=1	!LO:TX:a:t=1	!LO:TX:a:t=1	!LO:TX:a:t=1	!LO:TX:a:t=1	!LO:TX:a:t=1
4.BB-/	.	4.B-\	f	4.B-/	4.B-/	f	1r	.	1r	.	1r	.	1r	.	1r	1r	1r	1r	1r	1r	1r	1r
16D'\LL	.	16d\LL	.	16d/LL	16d/LL	.	.	.	.	.	.	.	.	.	.	.	.	.	.	.	.	.
16F'\JJ	.	16f\JJ	.	16f/JJ	16f/JJ	.	.	.	.	.	.	.	.	.	.	.	.	.	.	.	.	.
!	!	!	!	!LO:TX:t=P::problem=caudy wszystkich nut po prawej&colon; global	!	!	!	!	!	!	!	!	!	!	!	!	!	!	!	!	!	!
4B-'\	.	4b-\	.	4b-\	4b-\	.	.	.	.	.	.	.	.	.	.	.	.	.	.	.	.	.
4B-'\	.	4b-\	.	4b-\	4b-\	.	.	.	.	.	.	.	.	.	.	.	.	.	.	.	.	.
=2	=2	=2	=2	=2	=2	=2	=2	=2	=2	=2	=2	=2	=2	=2	=2	=2	=2	=2	=2	=2	=2	=2
!	!	!	!	!	!	!	!	!	!	!	!LO:TX:t=P:problem=tekst słowny zapisany innym kolorem	!	!	!	!	!	!	!	!	!	!	!
1A-X\	4	1f\ 1B-\	.	1b-/ 1f/	1dd\	.	1A-X\	San-	1B-\	Sanc-	1f\	San-	1dd\	San-	1BB-/T	1b-\	1B-/	1b-\	1d\	1f/	1dd\	1ddd\
=3	=3	=3	=3	=3	=3	=3	=3	=3	=3	=3	=3	=3	=3	=3	=3	=3	=3	=3	=3	=3	=3	=3
!	!	!	!	!	!	!	!LO:TX:t=P::problem=caudy wszystkich nut po prawej&colon; global	!	!LO:TX:t=P::problem=caudy wszystkich nut po prawej&colon; global	!	!	!	!LO:TX:t=P::problem=caudy wszystkich nut po prawej&colon; global	!	!	!LO:TX:t=P::problem=caudy wszystkich nut po prawej&colon; global	!	!LO:TX:t=P::problem=caudy wszystkich nut po prawej&colon; global	!LO:TX:t=P::problem=caudy wszystkich nut po prawej&colon; global	!	!LO:TX:t=P:: global:problem=caudy drobnych nut nieregularnie&colon; prawo, lewo, środek	!
4G\	6	4e-/ 4B-/	.	4b-/ 4g/	4ee-\	.	4G\	-ctus	4B-\	-tus	4g\	-ctus	4ee-\	-ctus	4BB-/	4b-\	4B-/	4b-\	4e-\	4g/	4ee-\	4eee-\
4r	.	4r	.	4r	4r	.	4r	.	4r	.	4r	.	4r	.	4r	4r	4r	4r	4r	4r	4r	4r
2r	.	2r	.	2r	2r	.	2r	.	2r	.	2r	.	2r	.	2r	2r	2r	2r	2r	2r	2r	2r
=4	=4	=4	=4	=4	=4	=4	=4	=4	=4	=4	=4	=4	=4	=4	=4	=4	=4	=4	=4	=4	=4	=4
!	!	!	!	!	!	!	!LO:TX:a:t=1.	!	!LO:TX:a:t=1	!	!LO:TX:b:t=1.	!	!LO:TX:a:t=1.	!	!LO:N:vis=4.	!	!LO:TX:a:t=1	!LO:TX:a:t=1	!	!LO:TX:a:t=1	!LO:TX:a:t=1	!LO:TX:a:t=1
4.C/	.	4.c\	.	4.c/	4.c/	.	1r	.	1r	.	1r	.	1r	.	00r	1r	1r	1r	1r	1r	1r	1r
16En'\LL	.	16en\LL	.	16en/LL	16en/LL	.	.	.	.	.	.	.	.	.	.	.	.	.	.	.	.	.
16G'\JJ	.	16g\JJ	.	16g/JJ	16g/JJ	.	.	.	.	.	.	.	.	.	.	.	.	.	.	.	.	.
!	!	!	!	!LO:LB:g=original	!	!	!	!	!	!	!	!	!	!	!	!	!	!	!	!	!	!
4c'\	.	4cc\	.	4cc\	4cc\	.	.	.	.	.	.	.	.	.	.	.	.	.	.	.	.	.
4c'\	.	4cc\	.	4cc\	4cc\	.	.	.	.	.	.	.	.	.	.	.	.	.	.	.	.	.
!	!	!	!	!	!	!	!	!	!	!	!	!	!	!	!	!	!	!	!	!LO:LB:g=original	!	!
=5	=5	=5	=5	=5	=5	=5	=5	=5	=5	=5	=5	=5	=5	=5	=5	=5	=5	=5	=5	=5	=5	=5
!	!	!	!	!	!	!	!	!	!	!	!	!	!	!	!	!	!	!	!LO:TX:t=P:problem=trzy takty zapisane system wyżej, z odnośnikiem vide-retro	!	!	!
*	*	*	*	*	*	*	*	*ij	*	*	*	*ij	*	*	*	*	*	*	*	*	*	*
1B-\	4	1c\	.	1b-/ 1g/	1een\	.	1B-\	San-	1c\	Sanc-	1g\	San-	1een\	San-	.	1cc\	1cc\	1cc\	1en\	1g/	1eeX\	1eeen\
!	!	!	!	!	!LO:LB:g=original	!	!	!	!	!	!	!	!	!	!	!	!	!	!	!	!	!
=6	=6	=6	=6	=6	=6	=6	=6	=6	=6	=6	=6	=6	=6	=6	=6	=6	=6	=6	=6	=6	=6	=6
4A\	6	4c\	.	4a/ 4f/	4ff\	.	4An\	-ctus	4c\	-tus	4a\	-ctus	4ff\	-ctus	.	4f/	4f/	4cc\	4f\	4a/	4ff\	4fff\
*	*	*	*	*	*	*	*	*Xij	*	*	*	*Xij	*	*	*	*	*	*	*	*	*	*
4r	.	4r	.	4r	4r	.	4r	.	4r	.	4r	.	4r	.	.	4r	4r	4r	4r	4r	4r	4r
2r	.	2r	.	2r	2r	.	2r	.	2r	.	2r	.	2r	.	.	2r	2r	2r	2r	2r	2r	2r
!LO:LB:g=original	!	!	!	!	!	!	!	!	!	!	!	!	!	!	!	!	!	!	!	!	!	!
=7	=7	=7	=7	=7	=7	=7	=7	=7	=7	=7	=7	=7	=7	=7	=7	=7	=7	=7	=7	=7	=7	=7
!	!	!	!	!	!	!	!LO:TX:a:t=1.	!	!LO:TX:a:t=1	!	!LO:TX:b:t=1.	!	!LO:TX:a:t=1.	!	!	!	!LO:TX:a:t=1	!LO:TX:a:t=1	!	!LO:TX:a:t=1	!LO:TX:a:t=1	!LO:TX:a:t=1
4.F\	.	4.F/	.	4.f/	4.f/	.	1r	.	1r	.	1r	.	1r	.	.	1r	1r	1r	1r	1r	1r	1r
16A'\LL	.	16A/LL	.	16a/LL	16a/LL	.	.	.	.	.	.	.	.	.	.	.	.	.	.	.	.	.
16c'\JJ	.	16c/JJ	.	16cc/JJ	16cc/JJ	.	.	.	.	.	.	.	.	.	.	.	.	.	.	.	.	.
4f'\	.	4f\	.	4ff\	4ff\	.	.	.	.	.	.	.	.	.	.	.	.	.	.	.	.	.
4f'\	.	4f\	.	4ff\	4ff\	.	.	.	.	.	.	.	.	.	.	.	.	.	.	.	.	.
!	!	!	!	!	!	!	!	!	!	!	!	!	!	!	!	!	!	!	!	!	!LO:LB:g=original	!
=8	=8	=8	=8	=8	=8	=8	=8	=8	=8	=8	=8	=8	=8	=8	=8	=8	=8	=8	=8	=8	=8	=8
1e-\	4	1f\	.	1ff\ 1dd\	1aa\	.	1f\	Sanc-	1f\	Sanc-	1a\	Sanc-	1cc\	San-	1FF/T	1f/	1f/	1cc\	1en\	1cc\	1aa\	1ccc\
!	!	!	!	!	!	!	!	!	!	!	!LO:LB:g=original	!	!	!	!	!	!	!	!	!	!	!
=9	=9	=9	=9	=9	=9	=9	=9	=9	=9	=9	=9	=9	=9	=9	=9	=9	=9	=9	=9	=9!|:	=9	=9
*	*	*	*	*	*	*	*2\right	*	*2\right	*	*2\right	*	*2\right	*	*	*	*2\right	*2\right	*2\right	*2\right	*2\right	*2\right
!	!	!	!	!	!	!	!	!	!	!	!	!	!	!	!	!	!	!	!	!LO:TX:t=P::problem=caudy wszystkich nut po prawej&colon; global	!	!
4B-\	8	4b-\	.	8r	8r	.	2B-\	-tus	2f\	-tus	2b-\	-tus	2dd\	-ctus	4BB-/	4b-\	2b-\	2dd\	2d\	2dd\	2bb-\	2bb-\
.	.	.	.	8dd\L	8bb-\L	.	.	.	.	.	.	.	.	.	.	.	.	.	.	.	.	.
4r	.	4r	.	8dd\	8bb-\	.	.	.	.	.	.	.	.	.	4r	4r	.	.	.	.	.	.
.	.	.	.	8dd\J	8bb-\J	.	.	.	.	.	.	.	.	.	.	.	.	.	.	.	.	.
4G\	3	4g\	.	8r	8r	.	2G\	Do-	2f\	Do-	2b-\	Do-	2dd\	Do-	4BB-/	4b-\	2b-\	2dd\	2d\	2dd\	2bb-\	2bb-\
.	.	.	.	8dd\L	8bb-\L	.	.	.	.	.	.	.	.	.	.	.	.	.	.	.	.	.
4r	.	4r	.	8dd\	8bb-\	.	.	.	.	.	.	.	.	.	4r	4r	.	.	.	.	.	.
.	.	.	.	8dd\J	8bb-\J	.	.	.	.	.	.	.	.	.	.	.	.	.	.	.	.	.
!	!	!LO:LB:g=original	!	!	!	!	!	!	!	!	!	!	!	!	!	!LO:LB:g=original	!	!LO:LB:g=original	!	!	!	!LO:LB:g=original
=10	=10	=10	=10	=10	=10	=10	=10	=10	=10	=10	=10	=10	=10	=10	=10	=10	=10	=10	=10	=10	=10	=10
4E-\	5	4e-\	.	8r	8r	.	2E-\	-mi-	2g\	-mi-	2b-\	-mi-	2dd\	-mi-	4BB-/	4b-\	2b-\	2dd\	2d\	2dd\	2bb-\	2bb-\
.	.	.	.	8dd\L	8bb-\L	.	.	.	.	.	.	.	.	.	.	.	.	.	.	.	.	.
4r	.	4r	.	8dd\	8bb-\	.	.	.	.	.	.	.	.	.	4r	4r	.	.	.	.	.	.
.	.	.	.	8dd\J	8bb-\J	.	.	.	.	.	.	.	.	.	.	.	.	.	.	.	.	.
!	!	!	!	!LO:LB:g=original	!	!	!	!	!	!	!	!	!	!	!	!	!	!	!	!	!	!
4F\	3	4f\	.	8r	8r	.	4F\	-nus	4f\	-nus	4a\	-nus	4cc\	-nus	4BB-/ 4FF/	4f/	2f/	2cc\	2c\	2cc\	2aa\	2aa\
.	.	.	.	8cc\L	8aa\L	.	.	.	.	.	.	.	.	.	.	.	.	.	.	.	.	.
4r	.	4r	.	8cc\	8aa\	.	4F\	De-	4f\	De-	4a\	De-	4cc\	De-	4r	4r	.	.	.	.	.	.
.	.	.	.	8cc\J	8aa\J	.	.	.	.	.	.	.	.	.	.	.	.	.	.	.	.	.
!	!	!	!	!	!	!	!	!	!LO:LB:g=original	!	!	!	!LO:LB:g=original	!	!	!	!	!	!	!	!	!
=11	=11	=11	=11	=11	=11	=11	=11	=11	=11	=11	=11	=11	=11	=11	=11	=11	=11	=11	=11	=11:|!	=11	=11
!	!	!	!	!	!	!	!	!	!	!	!	!	!	!	!	!	!	!	!	!LO:TX:t=P:problem=dwa takty zapisane powtórką	!	!
4B-\	8	4b-\	.	8r	8r	.	2B-\	-us	2f\	-us	2b-\	-us	2dd\	-us	4BB-/	4b-\	2b-\	2dd\	2d\	2dd\yy	2bb-\	2bb-\
.	.	.	.	8dd\L	8bb-\L	.	.	.	.	.	.	.	.	.	.	.	.	.	.	.	.	.
4r	.	4r	.	8dd\	8bb-\	.	.	.	.	.	.	.	.	.	4r	4r	.	.	.	.	.	.
.	.	.	.	8dd\J	8bb-\J	.	.	.	.	.	.	.	.	.	.	.	.	.	.	.	.	.
4G\	3	4g\	.	8r	8r	.	2G\	Sa-	2f\	Sa-	2b-\	Sa-	2dd\	Sa-	4BB-/	4b-\	2b-\	2dd\	2d\	2dd\yy	2bb-\	2bb-\
!	!	!	!	!	!LO:LB:g=original	!	!	!	!	!	!	!	!	!	!	!	!	!	!	!	!	!
.	.	.	.	8dd\L	8bb-\L	.	.	.	.	.	.	.	.	.	.	.	.	.	.	.	.	.
4r	.	4r	.	8dd\	8bb-\	.	.	.	.	.	.	.	.	.	4r	4r	.	.	.	.	.	.
.	.	.	.	8dd\J	8bb-\J	.	.	.	.	.	.	.	.	.	.	.	.	.	.	.	.	.
=12	=12	=12	=12	=12	=12	=12	=12	=12	=12	=12	=12	=12	=12	=12	=12	=12	=12	=12	=12	=12	=12	=12
4E-\	3	4e-\	.	8r	8r	.	2E-\	-ba-	2g\	-ba-	2b-\	-ba-	2dd\	-ba-	4BB-/	4b-\	2b-\	2dd\	2d\	2dd\yy	2bb-\	2bb-\
.	.	.	.	8dd\L	8bb-\L	.	.	.	.	.	.	.	.	.	.	.	.	.	.	.	.	.
4r	.	4r	.	8dd\	8bb-\	.	.	.	.	.	.	.	.	.	4r	4r	.	.	.	.	.	.
.	.	.	.	8dd\J	8bb-\J	.	.	.	.	.	.	.	.	.	.	.	.	.	.	.	.	.
4F\	3	4f\	.	8r	8r	.	2F\	-oth.	2f\	-ot.	2a\	-oth.	2cc\	-oth	4FF/	4f/	2f/	2cc\	2c\	2cc\yy	2aa\	2aa\
.	.	.	.	8cc\L	8aa\L	.	.	.	.	.	.	.	.	.	.	.	.	.	.	.	.	.
4r	.	4r	.	8cc\	8aa\	.	.	.	.	.	.	.	.	.	4r	4r	.	.	.	.	.	.
.	.	.	.	8cc\J	8aa\J	.	.	.	.	.	.	.	.	.	.	.	.	.	.	.	.	.
!	!	!	!	!	!	!	!LO:PB:g=original	!	!	!	!	!	!	!	!LO:LB:g=original	!	!LO:LB:g=original	!	!LO:LB;g=original	!	!	!
=13||	=13||	=13||	=13||	=13||	=13||	=13||	=13||	=13||	=13||	=13||	=13||	=13||	=13||;	=13||	=13||	=13||	=13||	=13||	=13||	=13||	=13||	=13||
*M3/4	*	*M3/4	*	*M3/4	*M3/4	*	*M3/4	*	*M3/4	*	*M3/4	*	*M3/4	*	*M3/4	*M3/4	*M3/4	*M3/4	*M3/4	*M3/4	*M3/4	*M3/4
*	*	*k[b-e-]	*	*k[b-e-]	*	*	*k[b-e-]	*	*	*	*k[b-e-]	*	*	*	*	*	*	*	*k[e-b-]	*	*	*
!LO:TX:rj:a:t=allo	!	!LO:TX:rj:a:t=Allo&colon;	!	!LO:TX:rj:a:t=Allo.	!LO:TX:rj:a:t=Allo.	!	!LO:TX:a:t=Allo	!	!LO:TX:a:t=Allo&colon;	!	!LO:TX:a:t=Allo	!	!LO:TX:rj:a:t=Allo molto	!	!LO:TX:rj:a:t=Allo	!LO:TX:a:t=Allo	!LO:TX:rj:a:t=Allo	!LO:TX:rj:a:t=Allo	!LO:TX:rj:a:t=Allo	!LO:TX:rj:a:t=Allo.	!LO:TX:rj:a:t=Allo&colon;	!LO:TX:rj:a:t=Allo.
4B-'\	.	4b-\	.	4dd\	4bb-\	.	4B-\	Ple-	4f\	Ple-	4d\	Ple-	4b-\	Ple-	4BB-/	4b-\	4d/	4b-\	4B-\	4r	4bb-\	4bb-\
4B-'\	.	4b-\	.	4d/	4b-\	.	4B-\	-ni	4f\	-ni	4d\	-ni	4b-\	-ni	4BB-/	4b-\	4d/	4b-\	4B-\	4d/	4b-\	4bb-\
4B-'\	.	4b-\	.	4d/	4b-\	.	4B-\	sunt	4f\	sunt	4d\	sunt	4b-\	sunt	4BB-/	4b-\	4d/	4b-\	4B-\	4d/	4b-\	4bb-\
!LO:LB:g=original	!	!	!	!LO:LB:g=original	!	!	!	!	!	!	!	!	!	!	!	!	!	!	!	!	!	!
=14	=14	=14	=14	=14	=14	=14	=14	=14	=14	=14	=14	=14	=14	=14	=14	=14	=14	=14	=14	=14	=14	=14
4B-'\	.	4b-\	.	8d/	8b-\	.	2B-\	coe-	2f\	ce-	2d\	Coe-	2b-\	ce-	4BB-/	4b-\	2d/	2b-\	2B-\	2d/	2b-\	8bb-\
.	.	.	.	4f/	4dd\	.	.	.	.	.	.	.	.	.	.	.	.	.	.	.	.	4ddd\
4r	.	4r	.	.	.	.	.	.	.	.	.	.	.	.	4r	4r	.	.	.	.	.	.
.	.	.	.	8e-/	8cc\L	.	.	.	.	.	.	.	.	.	.	.	.	.	.	.	.	8ccc\L
4B-'\	.	4b-\	.	8f/L	8dd\	.	4B-\	-li	4f\	-li	4d\	-li	4b-\	-li	4BB-/	4b-\	4d/	4b-\	4B-\	4d/	4b-\	8ddd\
.	.	.	.	8d/J	8b-\J	.	.	.	.	.	.	.	.	.	.	.	.	.	.	.	.	8bb-\J
!	!	!	!	!	!	!	!	!	!	!	!LO:LB:g=original	!	!	!	!	!	!	!	!	!	!	!
=15	=15	=15	=15	=15	=15	=15	=15	=15	=15	=15	=15	=15	=15	=15	=15	=15	=15	=15	=15	=15	=15	=15
*	*	*	*	*	*	*	*	*ij	*	*	*	*	*	*	*	*	*	*	*	*	*	*
4F\	7	4f\	.	8a\	8ff\	.	4F\	coe-	4A\	ce-	4e-\	coe-	4cc\	ce-	4FF/	4f/	4f/	4cc\	4c\	4a\	4cc\	4ccc\
.	.	.	.	4cc\	4aa\	.	.	.	.	.	.	.	.	.	.	.	.	.	.	.	.	.
4r	.	4f\	.	.	.	.	4F\	-li	4A\	-li	4e-\	-li	4cc\	-li	4r	4f/	4f/	4cc\	4c\	4a\	4cc\	4ccc\
*	*	*	*	*	*	*	*	*Xij	*	*	*	*	*	*	*	*	*	*	*	*	*	*
.	.	.	.	8b-\	8gg\L	.	.	.	.	.	.	.	.	.	.	.	.	.	.	.	.	.
4F\	.	4f\	.	8cc\L	8aa\	.	4F\	et	4A\	et	4e-\	et	4cc\	et	4FF/	4r	4f/	4cc\	4c\	4a\	4cc\	4ccc\
.	.	.	.	8a\J	8gg\J	.	.	.	.	.	.	.	.	.	.	.	.	.	.	.	.	.
=16	=16	=16	=16	=16	=16	=16	=16	=16	=16	=16	=16	=16	=16	=16	=16	=16	=16	=16	=16	=16	=16	=16
4B-\	3	4f\	.	8b-\	16bb-\LL	.	2B-\	ter-	2B-\	ter-	2f\	ter-	2dd\	ter-	4r	4dd\	4b-\	4dd\	4d\	4b-\	4dd\	4ddd\
.	.	.	.	.	16ccc\J	.	.	.	.	.	.	.	.	.	.	.	.	.	.	.	.	.
.	.	.	.	4dd\	8ddd\J	.	.	.	.	.	.	.	.	.	.	.	.	.	.	.	.	.
*	*	*	*	*	*	*	*	*	*	*	*	*	*	*	*	*2\right	*	*	*	*	*	*
*	*	*	*	*	*	*	*	*	*	*	*	*	*	*	*	*tremolo	*tremolo	*tremolo	*tremolo	*tremolo	*tremolo	*tremolo
!	!	!	!	!	!	!	!	!	!	!	!	!	!	!	!	!LO:TX:t=P:problem=nad nutą cztery staccata dla tremolowanych wartości	!	!LO:TX:t=P:problem=nad nutą cztery staccata dla tremolowanych wartości	!LO:TX:t=P:problem=nad nutą cztery staccata dla tremolowanych wartości	!	!LO:TX:t=P:problem=nad nutą cztery staccata dla tremolowanych wartości	!LO:TX:t=P:problem=nad nutą cztery staccata dla tremolowanych wartości
4B-\	.	4r	.	.	16bb-\LL	.	.	.	.	.	.	.	.	.	8r	8dd'\L	8b-\L	8dd'\L	8d'\L	8b-\L	8dd'\L	8ddd'\L
.	.	.	.	.	16ccc\J	.	.	.	.	.	.	.	.	.	.	.	.	.	.	.	.	.
.	.	.	.	8cc\	8ddd\J	.	.	.	.	.	.	.	.	.	8BB-/L	8dd'\	8b-\	8dd'\	8d'\	8b-\	8dd'\	8ddd'\
4B-\	.	4f\	.	8dd\L	16bb-\LL	.	4B-\	-ra	4B-\	-ra	4f\	-ra	4dd\	-ra	8BB-/	8dd'\	8b-\	8dd'\	8d'\	8b-\	8dd'\	8ddd'\
.	.	.	.	.	16ccc\J	.	.	.	.	.	.	.	.	.	.	.	.	.	.	.	.	.
.	.	.	.	8b-\J	8ddd\J	.	.	.	.	.	.	.	.	.	8BB-/J	8dd'\J	8b-\J	8dd'\J	8d'\J	8b-\J	8dd'\J	8ddd'\J
!	!	!	!	!	!LO:LB:g=original	!	!	!	!	!	!	!	!	!	!	!	!	!	!	!	!	!
=17	=17	=17	=17	=17	=17	=17	=17	=17	=17	=17	=17	=17	=17	=17	=17	=17	=17	=17	=17	=17	=17	=17
4F\	7	16f\LL	.	16a\LL	8ff\	.	4F\	glo-	4A\	glo-	4e-\	Glo-	4cc\	glo-	4FF/	4f/	4f/	4cc\	4c\	4a\	4cc\	4ccc\
.	.	16g\J	.	16b-\J	.	.	.	.	.	.	.	.	.	.	.	.	.	.	.	.	.	.
.	.	8a\J	.	8cc\J	4aa\	.	.	.	.	.	.	.	.	.	.	.	.	.	.	.	.	.
!	!	!	!	!	!	!	!	!	!	!	!	!	!	!	!	!LO:TX:t=P:problem=pod nutą cztery staccata dla tremolowanych wartości	!	!LO:TX:t=P:problem=nad nutą cztery staccata dla tremolowanych wartości	!LO:TX:t=P:problem=nad nutą cztery staccata dla tremolowanych wartości	!	!LO:TX:t=P:problem=nad nutą cztery staccata dla tremolowanych wartości	!LO:TX:t=P:problem=nad nutą cztery staccata dla tremolowanych wartości
4F\	.	16f\LL	.	16a\LL	.	.	4F\	-ri-	4A\	-ri-	4e-\	-ri-	4cc\	-ri-	8r	8f'/L	8f/L	8cc'\L	8c'\L	8a\L	8cc'\L	8ccc'\L
.	.	16g\J	.	16b-\J	.	.	.	.	.	.	.	.	.	.	.	.	.	.	.	.	.	.
.	.	8a\J	.	8cc\J	8gg\	.	.	.	.	.	.	.	.	.	8FF/L	8f'/	8f/	8cc'\	8c'\	8a\	8cc'\	8ccc'\
4F\	.	16f\LL	.	16a\LL	8aa\L	.	4F\	-a	4A\	-a	4e-\	-a	4cc\	-a	8FF/	8f'/	8f/	8cc'\	8c'\	8a\	8cc'\	8ccc'\
.	.	16g\J	.	16b-\J	.	.	.	.	.	.	.	.	.	.	.	.	.	.	.	.	.	.
.	.	8a\J	.	8cc\J	8ff\J	.	.	.	.	.	.	.	.	.	8FF/J	8f'/J	8f/J	8cc'\J	8c'\J	8a\J	8cc'\J	8ccc'\J
*	*	*	*	*	*	*	*	*	*	*	*	*	*	*	*	*Xtremolo	*Xtremolo	*Xtremolo	*Xtremolo	*Xtremolo	*Xtremolo	*Xtremolo
!	!	!	!	!LO:LB:g=original	!	!	!	!	!	!	!	!	!	!	!	!LO:LB:g=original	!	!	!	!	!	!
=18	=18	=18	=18	=18	=18	=18	=18	=18	=18	=18	=18	=18	=18	=18	=18	=18	=18	=18	=18	=18	=18	=18
4B-'\	.	4b-\	.	4b-\	4bb-\	.	4B-\	tu-	4B-\	tu-	4f\	tu-	4dd\	tu-	4BB-/	4b-\	4b-\	4b-\	4B-\	4b-\	4b-\	4bb-\
4BB-'/	.	4B-/	.	4d/	4b-\	.	4B-\	-a	4B-\	-a	4f\	-a	4dd\	-a	4BB-/	4b-\	4d/	4b-\	4B-\	4b-\	4b-\	4bb-\
4B-\	3	4b-\	.	4b-\	4b-\	.	4B-\	ple-	4B-\	ple-	4f\	Ple-	4dd\	ple-	4r	4r	4d/	4b-\	4B-\	4b-\	4b-\	4bb-\
!	!	!LO:LB:g=original	!	!	!	!	!	!	!	!	!	!	!	!	!	!	!	!	!	!LO:LB:g=original	!LO:LB:g=original	!
=19	=19	=19	=19	=19	=19	=19	=19	=19	=19	=19	=19	=19	=19	=19	=19	=19	=19	=19	=19	=19	=19	=19
4F\	7	4f\	.	4a\	4cc\	.	2F\	-ni	2f\	-ni	2a\	-ni	4cc\	-ni	4FF/	4f/	2f/	2cc\	2c\	2a\	2cc\	2ccc\
4F\	.	4f\	.	4a\	4ff\	.	.	.	.	.	.	.	4ff\	sunt	4FF/	4f/	.	.	.	.	.	.
4F\	.	4f\	.	4cc\	4ee-\	.	4F\	sunt	4f\	sunt	4cc\	sunt	4ee-\	.	4FF/	4f/	4f/	4cc\	4c\	4a\	4cc\	4ccc\
!	!	!	!	!	!	!	!LO:LB:g=original	!	!	!	!	!	!LO:LB:g=original	!	!	!	!	!LO:LB:g=original	!	!	!	!
=20	=20	=20	=20	=20	=20	=20	=20	=20	=20	=20	=20	=20	=20	=20	=20	=20	=20	=20	=20!|:	=20	=20	=20
4B-\	3	4b-\	.	4b-\	4dd\	.	2B-\	coe-	2f\	ce-	2b-\	Coe-	2dd\	ce-	4BB-/	4b-\	2b-\	2dd\	2d\	2b-\	2dd\	2ddd\
4B-\	.	4b-\	.	4dd\	4ff\	.	.	.	.	.	.	.	.	.	4BB-/	4b-\	.	.	.	.	.	.
4B-\	.	4b-\	.	4dd\	4bb-\	.	4B-\	-li	4f\	-li	4b-\	-li	4dd\	-li	4BB-/	4b-\	4b-\	4dd\	4d\	4b-\	4dd\	4ddd\
!	!	!	!	!	!	!	!	!	!LO:PB:g=original	!	!	!	!	!	!	!	!	!	!	!	!	!
=21	=21	=21	=21	=21	=21	=21	=21	=21	=21	=21	=21	=21	=21	=21	=21	=21	=21	=21	=21	=21	=21	=21
*	*	*	*	*	*	*	*	*ij	*	*	*	*ij	*	*	*	*	*	*	*	*	*	*
4F\	7	4f\	.	4cc\	4aa\	.	4F\	coe-	4f\	ce-	4a\	ple-	4cc\	ce-	4FF/	4f/	2cc\	2ee-\	2e-\	2cc\	2ee-\	2eee-\
4F\	.	4f\	.	4ee-\	4ccc\	.	4F\	-li	4f\	-li	4a\	-ni	4cc\	-li	4FF/	4f/	.	.	.	.	.	.
*	*	*	*	*	*	*	*	*Xij	*	*	*	*	*	*	*	*	*	*	*	*	*	*
4F\	.	4f\	.	4cc\	4ff\	.	4F\	et	4f\	et	4a\	sunt	4cc\	et	4FF/	4f/	4cc\	4ee-\	4e-\	4cc\	4ee-\	4eee-\
!	!	!	!	!	!	!	!	!	!	!	!	!	!	!	!LO:LB:g=original	!	!	!	!	!	!	!
=22	=22	=22	=22	=22	=22	=22	=22	=22	=22	=22	=22	=22	=22	=22	=22	=22	=22	=22	=22:|!	=22	=22	=22
!	!	!	!	!	!	!	!	!	!	!	!	!	!	!	!	!	!	!	!LO:TX:t=P:problem=dwa takty zapisane powtórką	!	!	!
4B-\	3	4b-\	.	4dd\	4bb-\	.	2B-\	ter-	2f\	ter-	2b-\	coe-	2dd\	ter-	4BB-/	4b-\	2b-\	2dd\	2d\yy	2b-\	2dd\	2ddd\
4B-\	.	4b-\	.	4b-\	4ddd\	.	.	.	.	.	.	.	.	.	4BB-/	4b-\	.	.	.	.	.	.
4B-\	.	4b-\	.	4dd\	4ff\	.	4B-\	-ra	4f\	-ra	4b-\	-li	4dd\	-ra	4BB-/	4b-\	4b-\	4dd\	4d\yy	4b-\	4dd\	4ddd\
*	*	*	*	*	*	*	*	*	*	*	*	*Xij	*	*	*	*	*	*	*	*	*	*
!	!	!	!	!	!	!	!	!	!	!	!LO:LB:g=original	!	!	!	!	!	!	!	!	!	!	!
=23	=23	=23	=23	=23	=23	=23	=23	=23	=23	=23	=23	=23	=23	=23	=23	=23	=23	=23	=23	=23	=23	=23
4F\	7	4a\	.	4cc\	4aa\	.	4F\	glo-	4f\	glo-	4a\	coe-	4cc\	glo-	4FF/	4f/	2cc\	2ee-\	2e-\yy	2cc\	2ee-\	2eee-\
4F\	.	4a\	.	4ee-\	4ccc\	.	4F\	-ri-	4f\	-ri-	4a\	-li	4cc\	-ri-	4FF/	4f/	.	.	.	.	.	.
4F\	.	4a\	.	4cc\	4ff\	.	4F\	-a	4f\	-a	4a\	et	4cc\	-a	4FF/	4f/	4cc\	4ee-\	4e-\yy	4cc\	4ee-\	4eee-\
!LO:LB:g=original	!	!	!	!	!	!	!	!	!	!	!	!	!	!	!	!	!	!	!	!	!	!
=24	=24	=24	=24	=24	=24	=24	=24	=24	=24	=24	=24	=24	=24	=24	=24	=24	=24	=24	=24!|:	=24	=24	=24
4B-\	3	4b-\	.	4dd\	4bb-\	.	4B-\	tu-	4f\	tu-	4b-\	ter-	4dd\	tu-	4BB-/	4b-\	4b-\	4dd\	4d\	4b-\	4dd\	4ddd\
4BB-/	.	4B-/	.	4dd\	4bb-\	.	4B-\	-a	4f\	-a	4b-\	-ra	4dd\	-a	4BB-/	4b-\	4b-\	4dd\	4d\	4b-\	4dd\	4ddd\
4r	.	4r	.	4r	4ff\	.	4r	.	4r	.	4r	.	4r	.	4r	4r	4r	4r	4r	4r	4r	4r
!	!	!	!	!LO:LB:g=original	!LO:LB:g=original	!	!	!	!	!	!	!	!	!	!	!	!LO:LB:g=original	!	!	!	!	!LO:LB:g=original
=25	=25	=25	=25	=25	=25	=25	=25	=25	=25	=25	=25	=25	=25	=25	=25	=25	=25	=25	=25:|!	=25	=25	=25
!	!	!	!	!	!	!	!	!	!	!	!	!	!	!	!	!	!	!	!LO:TX:t=P:problem=takt zapisany powtórką	!	!	!
4r	.	4r	.	4r	4ff\	.	4r	.	4r	.	4r	.	4r	.	4r	4r	4r	4r	4d\yy	4b-\	4dd\	4r
4B-\	3	4B-/	.	4dd/ 4f/	4bb-\	.	4B-\	Ple-	4f\	tu-	4f\	Ple-	4dd\	Ple-	4BB-/	4b-\	4d/	4b-\	4d\yy	4b-\	4dd\	4ddd\
4B-\	.	4B-/	.	4dd/ 4f/	4bb-\	.	4B-\	-ni	4f\	-a	4f\	-ni	4dd\	-ni	4BB-/	4b-\	4d/	4b-\	4ryy	4r	4r	4ddd\
!	!	!	!	!	!	!	!	!	!	!	!	!	!	!	!	!	!	!	!LO:LB:g=original	!	!	!
=26	=26	=26	=26	=26	=26	=26	=26	=26	=26	=26	=26	=26	=26	=26	=26	=26	=26	=26	=26	=26	=26	=26
4r	.	4r	.	4r	4dd\	.	4r	.	4r	.	4r	.	4r	.	4r	4r	4r	4r	4r	4b-\	4dd\	4r
*	*	*	*	*	*	*	*	*ij	*	*	*	*ij	*	*	*	*	*	*	*	*	*	*
4B-\	3	4B-/	.	4dd/ 4f/	4ff\	.	4B-\	ple-	4f\	Ple-	4f\	ple-	4dd\	Ple-	4BB-/	4b-\	4d/	4b-\	4d\	4b-\	4dd\	4ddd\
4B-\	.	4B-/	.	4dd/ 4f/	4ff\	.	4B-\	-ni	4f\	-ni	4f\	-ni	4dd\	-ni	4BB-/	4b-\	4d/	4b-\	4d\	4r	4r	4ddd\
=27	=27	=27	=27	=27	=27	=27	=27	=27	=27	=27	=27	=27	=27	=27	=27	=27	=27	=27	=27	=27	=27	=27
*	*	*	*	*	*2\right	*	*	*	*	*	*	*	*	*	*	*	*	*	*	*	*	*
*	*	*tremolo	*	*tremolo	*tremolo	*	*	*	*	*	*	*	*	*	*	*	*	*	*	*	*	*
!	!	!	!	!	!	!	!	!	!	!	!	!	!	!	!	!LO:TX:t=P:problem=cauda nietypowo po lewej	!	!	!	!	!	!
4BB-/	3	8B-/L	.	8d/L	8b-\L	.	4BB-/	ple-	4f\	Ple-	4f\	ple-	4dd\	ple-	4r	4B-/	2b-\	2dd\	2d\	2f/	2dd\	2ddd\
.	.	8d/	.	8f/	8dd\	.	.	.	.	.	.	.	.	.	.	.	.	.	.	.	.	.
4D/	8	8B-/	.	8d/	8b-\	.	4D/	-ni	4f\	-ni	4f\	-ni	4dd\	-ni	4BB-/	8d/L	.	.	.	.	.	.
*	*	*	*	*	*	*	*	*Xij	*	*	*	*Xij	*	*	*	*	*	*	*	*	*	*
.	.	8d/J	.	8f/J	8dd\J	.	.	.	.	.	.	.	.	.	.	8d/J	.	.	.	.	.	.
*	*	*Xtremolo	*	*Xtremolo	*Xtremolo	*	*	*	*	*	*	*	*	*	*	*	*	*	*	*	*	*
4F/	8	8d/L	.	8f/L	8f/L	.	4F\	sunt	4f\	sunt	4e-\	sunt	4cc\	sun	4FF/	4f/	4f/	4cc\	4c\	4e-/	4cc\	4ccc\
.	.	8c/J	.	8e-/J	8a/J	.	.	.	.	.	.	.	.	.	.	.	.	.	.	.	.	.
!	!	!	!	!	!	!	!	!	!	!	!	!	!	!	!	!LO:LB:g=original	!	!	!	!	!	!
=28	=28	=28	=28	=28	=28	=28	=28	=28	=28	=28	=28	=28	=28	=28	=28	=28	=28	=28	=28	=28	=28	=28
4B-\	.	4B-/	.	4d/	16b-\LL	.	4B-\	coe-	4f\	ce-	4d\	coe-	4b-\	ce-	4BB-/	4b-\	4d/	4b-\	4B-\	4d/	4b-\	4bb-\
.	.	.	.	.	16a\	.	.	.	.	.	.	.	.	.	.	.	.	.	.	.	.	.
.	.	.	.	.	16b-\	.	.	.	.	.	.	.	.	.	.	.	.	.	.	.	.	.
.	.	.	.	.	16cc\JJ	.	.	.	.	.	.	.	.	.	.	.	.	.	.	.	.	.
4BB-/	.	4B-/	.	16b-\LL	16dd\LL	.	4B-\	-li	4f\	-li	4d\	-li	4b-\	-li	4BB-/	4b-\	4d/	4b-\	4B-\	4d/	4b-\	4bb-\
.	.	.	.	16a\	16cc\	.	.	.	.	.	.	.	.	.	.	.	.	.	.	.	.	.
.	.	.	.	16b-\	16dd\	.	.	.	.	.	.	.	.	.	.	.	.	.	.	.	.	.
.	.	.	.	16cc\JJ	16ee-\JJ	.	.	.	.	.	.	.	.	.	.	.	.	.	.	.	.	.
4r	.	4r	.	8dd\L	8ff\L	.	4r	.	4r	.	4r	.	4r	.	4r	4r	4r	4r	4r	4r	4r	4r
.	.	.	.	8dd\J	8ff\J	.	.	.	.	.	.	.	.	.	.	.	.	.	.	.	.	.
!	!	!	!	!	!	!	!LO:LB:g=original	!	!LO:LB:g=original	!	!	!	!	!	!	!	!	!	!	!	!	!
=29	=29	=29	=29	=29	=29	=29	=29	=29	=29	=29	=29	=29	=29	=29	=29	=29	=29	=29	=29	=29!|:	=29	=29
4B-\	3	4B-/	.	4dd\	4.ff\	.	4r	.	4r	.	4r	.	4r	.	4r	4r	4r	4r	4r	4r	4r	4r
8r	.	8r	.	8r	.	.	4B-\	coe-	4f\	coe-	4f\	coe-	4dd\	ce-	8r	8r	8r	8r	8r	8r	8r	8r
*	*	*	*	*	*	*	*	*	*	*	*	*	*	*	*	*tremolo	*	*	*	*	*	*
!	!	!	!	!	!	!	!	!	!	!	!	!	!	!	!	!LO:TX:t=P:problem=nad nutą cztery staccata dla tremolowanych wartości	!	!	!	!	!	!
8B-\L	3	8B-/L	.	8dd/L 8f/	8bb-\L	.	.	.	.	.	.	.	.	.	8BB-/L	8b-'\L	8d/L	8b-\L	8d\L	8b-\L	8dd\L	8ddd\L
8B-\	.	8B-/	.	8dd/ 8f/	8bb-\	.	4B-\	-li	4f\	-li	4f\	-li	4dd\	-li	8BB-/	8b-'\	8d/	8b-\	8d\	8b-\	8dd\	8ddd\
8B-\J	.	8B-/J	.	8dd/J 8f/	8bb-\J	.	.	.	.	.	.	.	.	.	8BB-/J	8b-'\J	8d/J	8b-\J	8d\J	8b-\J	8dd\J	8ddd\J
!	!	!	!	!LO:LB:g=original	!	!	!	!	!	!	!	!	!LO:LB:g=original	!	!	!	!	!LO:PB:g=original	!	!LO:LB:g=original	!	!
=30	=30	=30	=30	=30	=30	=30	=30	=30	=30	=30	=30	=30	=30	=30	=30	=30	=30	=30	=30	=30:|!	=30	=30
!	!	!	!	!	!	!	!	!	!	!	!	!	!	!	!	!	!	!	!	!LO:TX:t=P:problem=takt zapisany powtórką	!	!
4B-\	3	4B-/	.	4dd/ 4f/	4.dd\	.	4r	.	4r	.	4r	.	4r	.	4r	4r	4r	4r	4r	4ryy	4r	4r
*	*	*	*	*	*	*	*	*ij	*	*	*	*ij	*	*	*	*	*	*	*	*	*	*
8r	.	8r	.	8r	.	.	4B-\	coe-	4f\	coe-	4f\	coe-	4dd\	ce-	8r	8r	8r	8r	4r	8ryy	8r	8r
8B-\L	3	8B-/L	.	8dd/L 8f/	8ff\L	.	.	.	.	.	.	.	.	.	8BB-/L	8b-\L	8d/L	8b-\L	.	8b-\Lyy	8dd\L	8ddd\L
*	*	*	*	*	*	*	*	*	*	*	*	*	*	*	*	*	*	*	*tremolo	*	*	*
!	!	!	!	!	!	!	!	!	!	!	!	!	!	!	!	!	!	!	!LO:TX:t=P:problem=nad nutą cztery staccata dla tremolowanych wartości	!	!	!
8B-\	.	8B-/	.	8dd/ 8f/	8ff\	.	4B-\	-li	4f\	-li	4f\	-li	4dd\	-li	8BB-/	8b-\	8d/	8b-\	8d'\L	8b-\yy	8dd\	8ddd\
*	*	*	*	*	*	*	*	*	*	*	*	*Xij	*	*	*	*	*	*	*	*	*	*
8B-\J	.	8B-/J	.	8dd/J 8f/	8ff\J	.	.	.	.	.	.	.	.	.	8BB-/J	8b-\J	8d/J	8b-\J	8d'\J	8b-\Jyy	8dd\J	8ddd\J
*	*	*	*	*	*	*	*	*	*	*	*	*	*	*	*	*Xtremolo	*	*	*Xtremolo	*	*	*
!	!	!LO:LB:g=original	!	!	!	!	!	!	!	!	!LO:LB:g=original	!	!	!	!	!	!	!	!	!	!LO:LB:g=original	!
=31	=31	=31	=31	=31	=31	=31	=31	=31	=31	=31	=31	=31	=31	=31	=31	=31	=31!|:	=31	=31	=31	=31	=31
*	*	*tremolo	*	*tremolo	*	*	*	*	*	*	*	*	*	*	*	*	*	*	*	*	*	*
!	!	!	!	!	!	!	!	!	!	!	!	!	!	!	!	!LO:TX:t=P:problem=cauda nietypowo po lewej	!	!	!	!	!	!
4BB-/	3	8B-/L	.	8d/L	8b-\L	.	4BB-/	coe-	4f\	coe-	4f\	coe-	4dd\	ce-	4r	4B-/	2b-\	2dd\	2d\	2f/	2dd\	2ddd\
.	.	8d/	.	8f/	8dd\	.	.	.	.	.	.	.	.	.	.	.	.	.	.	.	.	.
4D/	8	8B-/	.	8d/	8b-\	.	4D/	-li	4f\	-li	4f\	-li	4dd\	-li	4BB-/	8d/L	.	.	.	.	.	.
*	*	*	*	*	*	*	*	*Xij	*	*	*	*	*	*	*	*	*	*	*	*	*	*
.	.	8d/J	.	8f/J	8dd\J	.	.	.	.	.	.	.	.	.	.	8d/J	.	.	.	.	.	.
*	*	*Xtremolo	*	*	*	*	*	*	*	*	*	*	*	*	*	*	*	*	*	*	*	*
4F/	5	8c/L	.	8f/L	8f/L	.	4F/	et	4f\	et	4e-\	et	4cc\	et	4FF/	4f/	4f/	4cc\	4c\	4e-/	4cc\	4ccc\
.	.	8A/J	.	8e-/J	8a/J	.	.	.	.	.	.	.	.	.	.	.	.	.	.	.	.	.
*	*	*	*	*Xtremolo	*	*	*	*	*	*	*	*	*	*	*	*	*	*	*	*	*	*
!	!	!	!	!	!LO:LB:g=original	!	!	!	!	!	!	!	!	!	!	!	!	!	!	!	!	!
=32	=32	=32	=32	=32	=32	=32	=32	=32	=32	=32	=32	=32	=32	=32	=32	=32	=32	=32	=32!|:	=32	=32	=32!|:
4B-'\	.	4B-/	.	4d/	4b-\	.	4B-\	ter-	4f\	ter-	4d\	ter-	4b-\	ter-	4BB-/	4b-\	4d/	4b-\	4B-\	4d/	4b-\	4bb-\
4B-'\	.	4B-/	.	4d/	4b-\	.	4B-\	-ra	4f\	-ra	4d\	-ra	4b-\	-ra	4BB-/	4b-\	4d/	4b-\	4c\	4d/	4b-\	4bb-\
4A-X\	4	4d\	.	4b-\	4dd\	.	4A-X\	O-	4B-\	O-	4b-\	O-	4dd\	O-	4BB-/	4b-\	4B-/	4b-\	4d\	4b-\	4dd\	4ddd\
=33	=33	=33	=33	=33	=33	=33	=33	=33	=33	=33	=33	=33	=33	=33	=33	=33	=33	=33	=33	=33	=33	=33
4G\	6	4e-\	.	4b-\	4ee-\	.	(4G\	-san-	4c\	-san-	2b-\	-san-	4ee-\	-san-	4BB-/	4b-\	4B-/	4b-\	4e-\	4b-\	4ee-\	4eee-\
4F\	8	4f\	.	4b-\	4ff\	.	4F\)	.	4d\	.	.	.	4ff\	.	4BB-/	4b-\	4B-/	4b-\	4f\	4b-\	4ff\	4fff\
4E-\	10	4g\	.	4b-\	4gg\	.	4E-\	-na	4e-\	-na	4b-\	-na	4gg\	-na	4BB-/	4b-\	4B-/	4b-\	4g\	4b-\	4gg\	4ggg\
!LO:LB:g=original	!	!	!	!	!	!	!	!	!	!	!	!	!	!	!	!	!LO:LB:g=original	!	!	!	!	!
=34	=34	=34	=34	=34	=34	=34	=34	=34	=34	=34	=34	=34	=34	=34	=34	=34	=34:|!	=34	=34	=34	=34	=34
!	!	!	!	!	!	!	!	!	!	!	!	!	!	!	!	!	!LO:TX:t=P:problem=trzy takty zapisane powtórką	!	!	!	!	!
4F\	8	4f\	.	8dd\L	8ff\L	.	4F\	in	4f\	in	4dd\	in	4ff\	in	4r	4b-\	2b-\yy	2dd\	4f\	4dd\	4ff\	8.fff\L
.	.	.	.	8b-\J	8dd\	.	.	.	.	.	.	.	.	.	.	.	.	.	.	.	.	.
.	.	.	.	.	.	.	.	.	.	.	.	.	.	.	.	.	.	.	.	.	.	16ddd\Jk
4F\	6	4f\	.	8d/L	8b-\	.	4F\	ex-	4f\	ex-	4f\	ex-	4dd\	ex-	4BB-/	8d/L	.	.	4d\	4f/	4dd\	8bb-\L
.	.	.	.	8f/	8dd\J	.	.	.	.	.	.	.	.	.	.	8d/J	.	.	.	.	.	8ddd\
4FF/	5	4F/	.	8e-/	8f/L	.	4F\	-cel-	4f\	-cel-	4e-\	-cel-	4cc\	-cel-	4FF/	4f/	4f/yy	4cc\	4c\	4e-/	4cc\	8ff\
!	!	!	!	!	!	!	!	!	!	!	!	!	!	!	!	!	!	!	!	!	!	!LO:SIC:o:s:v:t=brak znaku powtórki
.	.	.	.	8f/J	8a/J	.	.	.	.	.	.	.	.	.	.	.	.	.	.	.	.	8aa\J
!	!	!	!	!	!	!	!	!	!	!	!	!	!	!	!LO:LB:g=original	!	!	!	!	!	!	!
=35	=35	=35	=35	=35	=35	=35	=35	=35	=35	=35	=35	=35	=35	=35	=35	=35	=35	=35	=35:|!	=35	=35	=35
!	!	!	!	!	!	!	!	!	!	!	!	!	!	!	!	!	!	!	!LO:TX:t=P:problem=trzy takty zapisane powtórką	!	!	!LO:TX:t=P:problem=trzy takty zapisane powtórką
4BB-'>/	.	4B-/	.	4d/	4b-\	.	2B-\	-sis	2f\	-sis	2d\	-sis	2b-\	-sis	4BB-/	4b-\	4d/yy	4b-\	4B-\yy	4d/	4b-\	4bb-\yy
4B-'\	.	4B-/	.	4d/	4b-\	.	.	.	.	.	.	.	.	.	4BB-/	4b-\	4d/yy	4b-\	4c\yy	4d/	4b-\	4bb-\yy
4A-X\	4	4d/	.	4b-\	4dd\	.	4A-X\	O-	4B-\	O-	4b-\	O-	4dd\	O-	4BB-/	4b-\	4B-/yy	4b-\	4d\yy	4b-\	4dd\	4ddd\yy
=36	=36	=36	=36	=36	=36	=36	=36	=36	=36	=36	=36	=36	=36	=36	=36	=36	=36	=36	=36	=36	=36	=36
!	!	!	!	!	!	!	!	!	!	!	!	!	!	!	!	!	!	!	!	!	!LO:TX:t=P:problem=u góry pięciolinii nad nutami plama	!
4G\	6	4e-\	.	4b-\	4ee-\	.	(4G\	-san-	4c\	-san-	2b-\	-san-	4ee-\	-san-	4BB-/	4b-\	4B-/yy	4b-\	4e-\yy	4b-\	4e-/	4eee-\yy
4F\	8	4f\	.	4b-\	4ff\	.	4F\)	.	4d\	.	.	.	4ff\	.	4BB-/	4b-\	4B-/yy	4b-\	4f\yy	4b-\	4f/	4fff\yy
4E-\	10	4g\	.	4b-\	4gg\	.	4E-\	-na	4e-\	-na	4b-\	-na	4gg\	-na	4BB-/	4b-\	4B-/yy	4b-\	4g\yy	4b-\	4gg\ 4g\	4ggg\yy
!	!	!	!	!	!	!	!LO:LB:g=original	!	!	!	!	!	!	!	!	!LO:LB:g=original	!	!	!	!	!	!
=37	=37	=37	=37	=37	=37	=37	=37	=37	=37	=37	=37	=37	=37	=37	=37	=37	=37	=37	=37	=37	=37	=37
4F\	.	4f\	.	8dd\L	8ff\L	.	4F\	in	4f\	in	4dd\	in	4ff\	in	4r	4b-\	2b-\	2dd\	4f\yy	4dd\	4ff\	8.fff\Lyy
.	.	.	.	8b-\J	8dd\	.	.	.	.	.	.	.	.	.	.	.	.	.	.	.	.	.
.	.	.	.	.	.	.	.	.	.	.	.	.	.	.	.	.	.	.	.	.	.	16ddd\Jkyy
4F\	.	4f\	.	8d/L	8b-\	.	4F\	ex-	4f\	ex-	4f\	ex-	4dd\	e-	4BB-/	8d/L	.	.	4d\yy	4f/	4dd\	8bb-\Lyy
.	.	.	.	8f/	8dd\J	.	.	.	.	.	.	.	.	.	.	8d/J	.	.	.	.	.	8ddd\yy
4FF/	.	4F/	.	8e-/	8f/L	.	4F\	-cel-	4f\	-cel-	4e-\	-cel-	4cc\	-xel-	4FF/	4f/	4f/	4cc\	4c\yy	4e-/	4cc\	8ff\yy
.	.	.	.	8f/J	8a/J	.	.	.	.	.	.	.	.	.	.	.	.	.	.	.	.	8aa\Jyy
!	!	!	!	!	!	!	!	!	!LO:LB:g=original	!	!	!	!	!	!	!	!	!	!	!	!	!
=38	=38	=38	=38	=38	=38	=38	=38	=38	=38	=38	=38	=38	=38	=38	=38	=38	=38	=38	=38	=38	=38	=38
4BB-/	3	4B-/	.	4d/	4r	.	2B-\	-sis	2B-\	-sis	2d\	-sis	2b-\	-sis	4r	4b-\	4d/	4b-\	4B-\	4d/	4b-\	4bb-\
4BB-/	.	4B-/	.	4dd/ 4f/	16b-\LL	.	.	.	.	.	.	.	.	.	4BB-/	4b-\	4d/	4b-\	4B-\	4d/	4b-\	4bb-\
.	.	.	.	.	16cc\J	.	.	.	.	.	.	.	.	.	.	.	.	.	.	.	.	.
.	.	.	.	.	8dd\J	.	.	.	.	.	.	.	.	.	.	.	.	.	.	.	.	.
4BB-/	.	4B-/	.	4dd/ 4f/	4b-\	.	4B-\	O-	4B-\	O-	4d\	O-	4b-\	O-	4BB-/	4b-\	4d/	4b-\	4B-\	4d/	4b-\	4bb-\
!	!	!	!	!	!LO:LB:g=original	!	!	!	!	!	!LO:LB:g=original	!	!	!	!	!	!	!	!	!	!	!
=39	=39	=39	=39	=39	=39	=39	=39	=39	=39	=39	=39	=39	=39	=39	=39	=39	=39	=39	=39	=39	=39	=39
4F\	5	4f\	.	4ee-/ 4f/	4r	.	2F\	-san-	2f\	-san-	2e-\	-san-	2dd\	-san-	4r	4f/	4f/	4cc\	4c\	4a\	4cc\	4ccc\
4F\	.	4f\	.	4ee-/ 4f/	16ff\LL	.	.	.	.	.	.	.	.	.	4FF/	4f/	4f/	4cc\	4c\	4a\	4cc\	4ccc\
.	.	.	.	.	16gg\J	.	.	.	.	.	.	.	.	.	.	.	.	.	.	.	.	.
.	.	.	.	.	8aa\J	.	.	.	.	.	.	.	.	.	.	.	.	.	.	.	.	.
4F\	.	4f\	.	4ee-/ 4f/	4ff\	.	4F\	-na	4f\	-na	4e-\	-na	4cc\	-na	4FF/	4f/	4f/	4cc\	4c\	4a\	4cc\	4ccc\
=40	=40	=40	=40	=40	=40	=40	=40	=40	=40	=40	=40	=40	=40	=40	=40	=40	=40	=40	=40	=40	=40	=40
4B-\	3	4b-\	.	4dd/ 4f/	4r	.	2B-\	in	2f\	in	2f\	in	2dd\	in	4r	4b-\	4b-\	4dd\	4d\	4b-\	4dd\	4ddd\
4B-\	.	4b-\	.	4dd/ 4f/	16bb-\LL	.	.	.	.	.	.	.	.	.	4BB-/	4b-\	4b-\	4dd\	4d\	4b-\	4dd\	4ddd\
.	.	.	.	.	16ccc\J	.	.	.	.	.	.	.	.	.	.	.	.	.	.	.	.	.
.	.	.	.	.	8ddd\J	.	.	.	.	.	.	.	.	.	.	.	.	.	.	.	.	.
4B-\	.	4b-\	.	4dd/ 4f/	4bb-\	.	4B-\	ex-	4f\	ex-	4f\	ex-	4dd\	ex-	4BB-/	4b-\	4b-\	4dd\	4d\	4b-\	4dd\	4ddd\
!	!	!	!	!	!	!	!	!	!	!	!	!	!	!	!	!	!	!LO:LB:g=original	!	!	!	!
=41	=41	=41	=41	=41	=41	=41	=41	=41	=41	=41	=41	=41	=41	=41	=41	=41	=41	=41	=41	=41	=41	=41
4F\	7 5	4f\	.	4cc/ 4f/	4r	.	2.F\	-cel-	2.f\	-cel-	2.e-\	-coel-	2.cc\	-cel-	4r	4f/	4f/	4cc\	4c\	4a\	4cc\	4ccc\
4F\	.	4f\	.	4cc/ 4f/	16ff\LL	.	.	.	.	.	.	.	.	.	4FF/	4f/	4f/	4cc\	4c\	4a\	4cc\	4ccc\
.	.	.	.	.	16gg\J	.	.	.	.	.	.	.	.	.	.	.	.	.	.	.	.	.
.	.	.	.	.	8aa\J	.	.	.	.	.	.	.	.	.	.	.	.	.	.	.	.	.
4F\	.	4f\	.	4cc/ 4f/	4ff\	.	.	.	.	.	.	.	.	.	4FF/	4f/	4f/	4cc\	4c\	4a\	4cc\	4ccc\
!	!	!	!	!	!	!	!	!	!	!	!	!	!	!	!	!	!	!	!	!LO:LB:g=original	!	!
=42	=42	=42	=42	=42	=42	=42	=42	=42	=42	=42	=42	=42	=42	=42	=42	=42	=42	=42	=42	=42	=42	=42
4BB-|/	.	4f/ 4B-/	.	4b-/ 4d/	4bb-\	.	4BB-/	-sis.	4f\	-sis	4d\	-sis	4b-\	-sis	4BB-/	4b-\	4d/	4b-\	4B-\	4b-\	4dd\	4bb-\
4BB-|/	.	4f/ 4B-/	.	4d/	4b-\	.	4r	.	4r	.	4r	.	4r	.	4BB-/	4b-\	4d/	4b-\	4d\	4b-\	4dd\	4bb-\
4BB-|/	.	4f/ 4B-/	.	4d/	4b-\	.	4r	.	4r	.	4r	.	4r	.	4BB-/	4b-\	4d/	4b-\	4d\	4b-\	4dd\	4bb-\
!	!	!	!	!	!	!	!	!	!	!	!	!	!LO:LB:g=original	!	!	!	!	!	!	!	!	!
=43	=43	=43	=43	=43	=43	=43	=43	=43	=43	=43	=43	=43	=43	=43	=43	=43	=43	=43	=43	=43	=43	=43
!	!	!	!	!	!	!	!LO:TX:a:t=1.	!	!LO:TX:a:t=1.	!	!LO:TX:a:t=1.	!	!LO:TX:a:t=1.	!	!	!	!	!	!	!	!	!
2BB-/	.	2f/ 2B-/	.	2d/	2b-\	.	2.r	.	2.r	.	2.r	.	2.r	.	2BB-/	2b-\	2d/	2b-\	2d\	2b-\	2dd\	2bb-\
!	!	!	!	!	!	!	!	!	!	!	!	!	!	!	!LO:TX:a:i:t=Benedictus et Agnus Tacet.	!	!	!	!LO:TX:b:i:t=Verte Subito	!	!	!LO:TX:b:i:t=Verte Citto.
4r	.	4r	.	4r	4r	.	.	.	.	.	.	.	.	.	4r	4r	4r	4r	4r	4r	4r	4r
==	==	==	==	==	==	==	==	==	==	==	==	==	==	==	==	==	==	==	==	==	==	==
*-	*-	*-	*-	*-	*-	*-	*-	*-	*-	*-	*-	*-	*-	*-	*-	*-	*-	*-	*-	*-	*-	*-
!!!system-decoration: [(s1,s2,s3,s4)][(s5,s6,s7)]s8[(s9,s10,s11,s12)][(s13,s14,s15)]s16
!!!RDF**kern: | = vertical stroke
!!!RDF**kern: > = above
!!!RDF**kern: < = below
!!!ENC: Solarz Mateusz
!!!END: 2020-10-15
!!!ENC: Leszek Kubiak
!!!END: 2022-01-22
